resources/svg/regular/message-rounded-add.svg

<svg xmlns="http://www.w3.org/2000/svg" fill="currentColor" stroke="none" viewBox="0 0 24 24"><path d="M12 2C6.486 2 2 5.589 2 10c0 2.908 1.898 5.515 5 6.934V22l5.34-4.005C17.697 17.852 22 14.32 22 10c0-4.411-4.486-8-10-8zm0 14h-.333L9 18v-2.417l-.641-.247C5.67 14.301 4 12.256 4 10c0-3.309 3.589-6 8-6s8 2.691 8 6-3.589 6-8 6z"/><path d="M13 6h-2v3H8v2h3v3h2v-3h3V9h-3z"/></svg>

<svg xmlns="http://www.w3.org/2000/svg" fill="currentColor" stroke="none" viewBox="0 0 24 24"><path d="M12,2C6.486,2,2,5.589,2,10c0,2.908,1.898,5.515,5,6.934V22l5.34-4.005C17.697,17.852,22,14.32,22,10 C22,5.589,17.514,2,12,2z M12,16h-0.333L9,18v-2.417l-0.641-0.247C5.67,14.301,4,12.256,4,10c0-3.309,3.589-6,8-6s8,2.691,8,6 S16.411,16,12,16z"/><path d="M13 6L11 6 11 9 8 9 8 11 11 11 11 14 13 14 13 11 16 11 16 9 13 9z"/></svg>
